storage/app/icons/phosphoricons/light/oven-light.svg

<svg xmlns="http://www.w3.org/2000/svg" fill="currentColor" viewBox="0 0 256 256"><path d="M208 34H48a14 14 0 0 0-14 14v160a14 14 0 0 0 14 14h160a14 14 0 0 0 14-14V48a14 14 0 0 0-14-14m2 174a2 2 0 0 1-2 2H48a2 2 0 0 1-2-2V48a2 2 0 0 1 2-2h160a2 2 0 0 1 2 2ZM74 76a10 10 0 1 1 10 10 10 10 0 0 1-10-10m44 0a10 10 0 1 1 10 10 10 10 0 0 1-10-10m44 0a10 10 0 1 1 10 10 10 10 0 0 1-10-10m22 30H72a6 6 0 0 0-6 6v72a6 6 0 0 0 6 6h112a6 6 0 0 0 6-6v-72a6 6 0 0 0-6-6m-6 72H78v-60h100Z"/></svg>

<svg xmlns="http://www.w3.org/2000/svg" viewBox="0 0 256 256" fill="currentColor"><path d="M208,34H48A14,14,0,0,0,34,48V208a14,14,0,0,0,14,14H208a14,14,0,0,0,14-14V48A14,14,0,0,0,208,34Zm2,174a2,2,0,0,1-2,2H48a2,2,0,0,1-2-2V48a2,2,0,0,1,2-2H208a2,2,0,0,1,2,2ZM74,76A10,10,0,1,1,84,86,10,10,0,0,1,74,76Zm44,0a10,10,0,1,1,10,10A10,10,0,0,1,118,76Zm44,0a10,10,0,1,1,10,10A10,10,0,0,1,162,76Zm22,30H72a6,6,0,0,0-6,6v72a6,6,0,0,0,6,6H184a6,6,0,0,0,6-6V112A6,6,0,0,0,184,106Zm-6,72H78V118H178Z"/></svg>
